packages/kaspersky-hexa-ui-icons/src/iconsSVGs/24/MediaStorage1.svg

<svg width="24" height="24" viewBox="0 0 24 24" fill="none" xmlns="http://www.w3.org/2000/svg">
<path fill-rule="evenodd" clip-rule="evenodd" d="M6.9881 15.9883C5.45679 15.9883 4.19345 14.841 4.01079 13.3591C4.91564 13.7864 5.98936 13.9883 7.05645 13.9883L11.9841 13.9883L11.9881 13.9883L11.992 13.9883H16.9881C17.5404 13.9883 17.9881 13.5406 17.9881 12.9883V10.9883C17.9881 10.436 17.5404 9.98828 16.9881 9.98828H13.3341C13.6248 9.36603 13.8266 8.69391 13.9231 7.98828H16.9881C17.5404 7.98828 17.9881 7.54057 17.9881 6.98828V4.98828C17.9881 4.436 17.5404 3.98828 16.9881 3.98828H13.2931C12.9295 3.23687 12.4353 2.5604 11.8401 1.98828H16.9881C18.645 1.98828 19.9881 3.33143 19.9881 4.98828V6.98828C19.9881 7.75664 19.6992 8.45753 19.2242 8.98828C19.6992 9.51904 19.9881 10.2199 19.9881 10.9883V12.9883C19.9881 14.6451 18.645 15.9883 16.9881 15.9883H12.9881V17.159C13.8405 17.4603 14.5161 18.1359 14.8174 18.9883H18.9881C19.5404 18.9883 19.9881 19.436 19.9881 19.9883C19.9881 20.5406 19.5404 20.9883 18.9881 20.9883H14.8174C14.4056 22.1535 13.2943 22.9883 11.9881 22.9883C10.6819 22.9883 9.57064 22.1535 9.1588 20.9883H4.9881C4.43581 20.9883 3.9881 20.5406 3.9881 19.9883C3.9881 19.436 4.43581 18.9883 4.9881 18.9883H9.1588C9.46009 18.1359 10.1357 17.4603 10.9881 17.159V15.9883H6.9881ZM12.9881 19.9883C12.9881 19.436 12.5404 18.9883 11.9881 18.9883C11.4358 18.9883 10.9881 19.436 10.9881 19.9883C10.9881 20.5406 11.4358 20.9883 11.9881 20.9883C12.5404 20.9883 12.9881 20.5406 12.9881 19.9883Z" fill="black"/>
<path d="M8.37644 6.47458C8.77644 6.70552 8.77644 7.28286 8.37644 7.51381L6.75299 8.45112C6.35299 8.68207 5.85298 8.39339 5.85298 7.93151V6.05687C5.85298 5.59499 6.35299 5.30632 6.75299 5.53726L8.37644 6.47458Z" fill="black"/>
<path fill-rule="evenodd" clip-rule="evenodd" d="M2 6.9942C2 4.23606 4.23588 2.00011 6.99401 2.00011C9.75215 2.00011 11.988 4.23606 11.988 6.9942C11.988 9.75234 9.75215 11.9883 6.99401 11.9883C4.23588 11.9883 2 9.75234 2 6.9942ZM6.99401 4.00011C5.34048 4.00011 4 5.3406 4 6.9942C4 8.6478 5.34048 9.98828 6.99401 9.98828C8.64755 9.98828 9.98803 8.6478 9.98803 6.9942C9.98803 5.3406 8.64755 4.00011 6.99401 4.00011Z" fill="black"/>
</svg>

<svg xmlns="http://www.w3.org/2000/svg" width="24" height="24" fill="none" viewBox="0 0 24 24"><path fill="#000" fill-rule="evenodd" d="M6.9881 15.9883c-1.5313 0-2.7946-1.1473-2.9773-2.6292.9048.4273 1.9786.6292 3.0457.6292h9.9316c.5523 0 1-.4477 1-1v-2c0-.5523-.4477-1-1-1h-3.654a6.94 6.94 0 0 0 .589-2h3.065c.5523 0 1-.4477 1-1v-2c0-.5523-.4477-1-1-1h-3.695a7.01 7.01 0 0 0-1.453-2h5.148c1.6569 0 3 1.3431 3 3v2a2.99 2.99 0 0 1-.7639 2 2.99 2.99 0 0 1 .7639 2v2c0 1.6568-1.3431 3-3 3h-4v1.1707a3.009 3.009 0 0 1 1.8293 1.8293h4.1707c.5523 0 1 .4477 1 1s-.4477 1-1 1h-4.1707c-.4118 1.1652-1.5231 2-2.8293 2s-2.4175-.8348-2.8293-2H4.9881c-.5523 0-1-.4477-1-1s.4477-1 1-1h4.1707a3.009 3.009 0 0 1 1.8293-1.8293v-1.1707zm6 4c0-.5523-.4477-1-1-1s-1 .4477-1 1 .4477 1 1 1 1-.4477 1-1" clip-rule="evenodd"/><path fill="#000" d="M8.3764 6.4746c.4.231.4.8083 0 1.0392l-1.6234.9373c-.4.231-.9-.0577-.9-.5196V6.057c0-.462.5-.7506.9-.5196z"/><path fill="#000" fill-rule="evenodd" d="M2 6.9942c0-2.7581 2.2359-4.994 4.994-4.994 2.7582 0 4.994 2.2359 4.994 4.994s-2.2358 4.9941-4.994 4.9941S2 9.7523 2 6.9942m4.994-2.994C5.3405 4.0001 4 5.3405 4 6.9941s1.3405 2.994 2.994 2.994 2.994-1.3404 2.994-2.994-1.3404-2.994-2.994-2.994" clip-rule="evenodd"/></svg>
